X: 33775
T: Raven's Flight, The
R: reel
M: 4/4
K: Eminor
Bd|:eBfB gabg|fgaf efed|eBfB gabg|fagf e4|
eBfB gabg|fgaf efed|eBfB gabg|fagf e4:|
|:~b3a gabg|~a3g fagf|~g3f efge|fgef deBd|
~b3a gabg|~a3g fagf|~g3f efge|f/g/agf e4:|

